packages/ffe-icons/icons/open/400/sm/text_select_end.svg

<svg xmlns="http://www.w3.org/2000/svg" height="20" viewBox="0 -960 960 960" width="20"><path d="M480.211-144Q465-144 454.5-154.289q-10.5-10.29-10.5-25.5Q444-195 454.289-205.5q10.29-10.5 25.5-10.5Q495-216 505.5-205.711q10.5 10.29 10.5 25.5Q516-165 505.711-154.5q-10.29 10.5-25.5 10.5Zm-150 0Q315-144 304.5-154.289q-10.5-10.29-10.5-25.5Q294-195 304.289-205.5q10.29-10.5 25.5-10.5Q345-216 355.5-205.711q10.5 10.29 10.5 25.5Q366-165 355.711-154.5q-10.29 10.5-25.5 10.5Zm-150 0Q165-144 154.5-154.289q-10.5-10.29-10.5-25.5Q144-195 154.289-205.5q10.29-10.5 25.5-10.5Q195-216 205.5-205.711q10.5 10.29 10.5 25.5Q216-165 205.711-154.5q-10.29 10.5-25.5 10.5Zm0-150Q165-294 154.5-304.289q-10.5-10.29-10.5-25.5Q144-345 154.289-355.5q10.29-10.5 25.5-10.5Q195-366 205.5-355.711q10.5 10.29 10.5 25.5Q216-315 205.711-304.5q-10.29 10.5-25.5 10.5Zm0-150Q165-444 154.5-454.289q-10.5-10.29-10.5-25.5Q144-495 154.289-505.5q10.29-10.5 25.5-10.5Q195-516 205.5-505.711q10.5 10.29 10.5 25.5Q216-465 205.711-454.5q-10.29 10.5-25.5 10.5Zm0-150Q165-594 154.5-604.289q-10.5-10.29-10.5-25.5Q144-645 154.289-655.5q10.29-10.5 25.5-10.5Q195-666 205.5-655.711q10.5 10.29 10.5 25.5Q216-615 205.711-604.5q-10.29 10.5-25.5 10.5Zm300-150Q465-744 454.5-754.289q-10.5-10.29-10.5-25.5Q444-795 454.289-805.5q10.29-10.5 25.5-10.5Q495-816 505.5-805.711q10.5 10.29 10.5 25.5Q516-765 505.711-754.5q-10.29 10.5-25.5 10.5Zm-150 0Q315-744 304.5-754.289q-10.5-10.29-10.5-25.5Q294-795 304.289-805.5q10.29-10.5 25.5-10.5Q345-816 355.5-805.711q10.5 10.29 10.5 25.5Q366-765 355.711-754.5q-10.29 10.5-25.5 10.5Zm-150 0Q165-744 154.5-754.289q-10.5-10.29-10.5-25.5Q144-795 154.289-805.5q10.29-10.5 25.5-10.5Q195-816 205.5-805.711q10.5 10.29 10.5 25.5Q216-765 205.711-754.5q-10.29 10.5-25.5 10.5ZM612-144q-15.3 0-25.65-10.289-10.35-10.29-10.35-25.5Q576-195 586.35-205.5 596.7-216 612-216h48v-528h-48q-15.3 0-25.65-10.289-10.35-10.29-10.35-25.5Q576-795 586.35-805.5 596.7-816 612-816h168q15.3 0 25.65 10.289 10.35 10.29 10.35 25.5Q816-765 805.65-754.5 795.3-744 780-744h-48v528h48q15.3 0 25.65 10.289 10.35 10.29 10.35 25.5Q816-165 805.65-154.5 795.3-144 780-144H612Z"/></svg>

<svg xmlns="http://www.w3.org/2000/svg" height="20" viewBox="0 -960 960 960" width="20"><path d="M480.21-144q-15.21 0-25.71-10.29t-10.5-25.5q0-15.21 10.29-25.71t25.5-10.5q15.21 0 25.71 10.29t10.5 25.5q0 15.21-10.29 25.71t-25.5 10.5Zm-150 0q-15.21 0-25.71-10.29t-10.5-25.5q0-15.21 10.29-25.71t25.5-10.5q15.21 0 25.71 10.29t10.5 25.5q0 15.21-10.29 25.71t-25.5 10.5Zm-150 0q-15.21 0-25.71-10.29t-10.5-25.5q0-15.21 10.29-25.71t25.5-10.5q15.21 0 25.71 10.29t10.5 25.5q0 15.21-10.29 25.71t-25.5 10.5Zm0-150q-15.21 0-25.71-10.29t-10.5-25.5q0-15.21 10.29-25.71t25.5-10.5q15.21 0 25.71 10.29t10.5 25.5q0 15.21-10.29 25.71t-25.5 10.5Zm0-150q-15.21 0-25.71-10.29t-10.5-25.5q0-15.21 10.29-25.71t25.5-10.5q15.21 0 25.71 10.29t10.5 25.5q0 15.21-10.29 25.71t-25.5 10.5Zm0-150q-15.21 0-25.71-10.29t-10.5-25.5q0-15.21 10.29-25.71t25.5-10.5q15.21 0 25.71 10.29t10.5 25.5q0 15.21-10.29 25.71t-25.5 10.5Zm300-150q-15.21 0-25.71-10.29t-10.5-25.5q0-15.21 10.29-25.71t25.5-10.5q15.21 0 25.71 10.29t10.5 25.5q0 15.21-10.29 25.71t-25.5 10.5Zm-150 0q-15.21 0-25.71-10.29t-10.5-25.5q0-15.21 10.29-25.71t25.5-10.5q15.21 0 25.71 10.29t10.5 25.5q0 15.21-10.29 25.71t-25.5 10.5Zm-150 0q-15.21 0-25.71-10.29t-10.5-25.5q0-15.21 10.29-25.71t25.5-10.5q15.21 0 25.71 10.29t10.5 25.5q0 15.21-10.29 25.71t-25.5 10.5ZM612-144q-15.3 0-25.65-10.29Q576-164.58 576-179.79t10.35-25.71Q596.7-216 612-216h48v-528h-48q-15.3 0-25.65-10.29Q576-764.58 576-779.79t10.35-25.71Q596.7-816 612-816h168q15.3 0 25.65 10.29Q816-795.42 816-780.21t-10.35 25.71Q795.3-744 780-744h-48v528h48q15.3 0 25.65 10.29Q816-195.42 816-180.21t-10.35 25.71Q795.3-144 780-144H612Z"/></svg>
